icons/svg/account-key.svg

﻿<?xml version="1.0" encoding="utf-8"?>
<!DOCTYPE svg PUBLIC "-//W3C//DTD SVG 1.1//EN" "http://www.w3.org/Graphics/SVG/1.1/DTD/svg11.dtd">
<svg xmlns="http://www.w3.org/2000/svg" xmlns:xlink="http://www.w3.org/1999/xlink" version="1.1" baseProfile="full" width="24" height="24" viewBox="0 0 24.00 24.00" enable-background="new 0 0 24.00 24.00" xml:space="preserve">
	<path fill="#000000" fill-opacity="1" stroke-width="0.2" stroke-linejoin="round" d="M 11,10L 11,12L 9.99999,12L 9.99999,14L 7.99999,14L 7.99999,12L 5.82929,12C 5.41745,13.1652 4.30622,14 3,14C 1.34315,14 0,12.6569 0,11C 0,9.34315 1.34314,8 3,8C 4.30622,8 5.41746,8.83481 5.82929,10L 11,10 Z M 3,10C 2.44771,10 2,10.4477 2,11C 2,11.5523 2.44771,12 3,12C 3.55228,12 4,11.5523 4,11C 4,10.4477 3.55228,10 3,10 Z M 16,14C 18.667,14 24,15.335 24,18L 24,20L 8,20L 8,18C 8,15.335 13.333,14 16,14 Z M 16,12C 13.792,12 12,10.207 12,8C 12,5.792 13.792,4 16,4C 18.208,4 20,5.792 20,8C 20,10.207 18.208,12 16,12 Z "/>
</svg>

<svg xmlns="http://www.w3.org/2000/svg" version="1.1" baseProfile="full" width="24" height="24" viewBox="0 0 24.00 24.00" xml:space="preserve"><path fill="#000" fill-opacity="1" stroke-width=".2" stroke-linejoin="round" d="M11 10v2h-1v2H8v-2H5.83c-.413 1.165-1.524 2-2.83 2-1.657 0-3-1.343-3-3s1.343-3 3-3c1.306 0 2.417.835 2.83 2H11zm-8 0c-.552 0-1 .448-1 1s.448 1 1 1 1-.448 1-1-.448-1-1-1zm13 4c2.667 0 8 1.335 8 4v2H8v-2c0-2.665 5.333-4 8-4zm0-2c-2.208 0-4-1.793-4-4 0-2.208 1.792-4 4-4s4 1.792 4 4c0 2.207-1.792 4-4 4z"/></svg>
